!!!COM: Haydn, Franz Joseph
!!!CDT: 1732/03/31/-1809/05/31/
!!!CNT: Austrian
!!!OTL: Sonata No. 12 in A major
!!!SCT: Hob. XVI:12
!!!OMV: Mvmt. 2
!!!OMD: Menuetto & Trio
!!!ODT: 1750-1755///
!!!SMS: Universal Edition 1, Haydn Piano Sonatas, Vol. 1, No. 5
!!!ONB: Stich und Druck von Jos. Eberle & Co. Wien VII. Seidengasse 3-9
**kern	**kern	**dynam
*staff2	*staff1	*staff1/2
*Ipiano	*Ipiano	*Ipiano
*>[A,A,B,B,C,C,D,D,A,B]	*>[A,A,B,B,C,C,D,D,A,B]	*>[A,A,B,B,C,C,D,D,A,B]
*>norep[A,B,C,D,A,B]	*>norep[A,B,C,D,A,B]	*>norep[A,B,C,D,A,B]
*>A	*>A	*>A
*clefF4	*clefG2	*clefG2
*k[f#c#g#]	*k[f#c#g#]	*k[f#c#g#]
*A:	*A:	*A:
*M3/4	*M3/4	*M3/4
*MM128	*MM128	*MM128
=1-	=1-	=1-
4AA\ 4A\	(4a/	mf
4r	12cc#\L	.
.	12b\	.
.	12a\J	.
(4c#\	4ee\)	.
=2	=2	=2
4B\	12dd\L	.
.	12ee\	.
.	12ff#\J	.
4G#\	4b\	.
4E\	&(4dd\&)	.
=3	=3	=3
4A\	12cc#\L	.
.	12dd\	.
.	12ee\J	.
4c#\)	4a/	.
(4A\	&(16bb\LL&)	.
.	16aa\	.
.	16gg#\	.
.	16ff#\JJ	.
=4	=4	=4
4B\	2dd\	.
4E\	.	.
4A\)	&(4cc#\&)	.
=5	=5	=5
4r	(12aa\L	.
.	12bb\	.
.	12ccc#\J	.
4r	12bb\L	.
.	12aa\	.
.	12gg#\J	.
*clefG2	*	*
4d#/	12ff#\L	.
.	12gg#\	.
.	12aa\J	.
=6	=6	=6
4e/	12gg#\L	.
.	12ff#\	.
.	12ee\J	.
4f#/	12dd#\L	.
.	12cc#\	.
.	12b\J	.
&(4g#/&)	4ee\)	.
=7	=7	=7
4r	(12aa\L	.
.	12bb\	.
.	12ccc#\J	.
4r	12bb\L	.
.	12aa\	.
.	12gg#\J	.
*clefF4	*	*
4D#\	12ff#\L	.
.	12gg#\	.
.	12aa\J	.
=8	=8	=8
4E\	12gg#\L	.
.	12aa\	.
.	12bb\J	.
4F#\	12dd#\L	.
.	12ee\	.
.	12ff#\J	.
4G#\	4ee\)	.
=9	=9	=9
4A\	16dd#\LL	.
.	(16cc#\	.
.	16b\	.
.	16a\JJ	.
4B\	4g#/)	.
4BB/	(4f#/	.
=10	=10	=10
&(4E'\&)	2e/)	.
4BB'/	.	.
4EE'/	4r	.
=11:|!|:	=11:|!|:	=11:|!|:
*>B	*>B	*>B
2EE/ 2E/	(4e/	p
.	12g#/L	.
.	12f#/	.
.	12e/J	.
(4G#\	4ddn\)	.
=12	=12	=12
4A\	12cc#\L	.
.	12dd\	.
.	12ee\J	.
4B\	4g#/	.
4c#\)	&(4a/&)	.
*clefG2	*	*
=13	=13	=13
4r	(12ff#\L	.
.	12gg#\	.
.	12aa\J	.
(4cc#\	4ee\)	.
4a/	4cc#'\	.
=14	=14	=14
4b\	12dd\L	.
.	12ee\	.
.	12ff#\J	.
4g#/	&(4dd\&)	.
4a/)	4cc#'\	.
=15	=15	=15
(2d/ 2f#/	(4cc#\	.
.	12ff#\L	.
.	12ee\	.
.	12dd\J	.
4d#/	12cc#\L	.
.	12b\	.
.	12a\J)	.
=16	=16	=16
4e/)	4a/	.
*clefF4	*	*
4B'\	2g#/	.
4E'\	.	.
=17	=17	=17
4AA\ 4A\	(4a/	mf
4r	12cc#\L	.
.	12b\	.
.	12a\J	.
(4c#\	4ee\)	.
=18	=18	=18
4B\	12dd\L	.
.	12ee\	.
.	12ff#\J	.
4G#\	&(4b\&)	.
4E\	4dd'\	.
=19	=19	=19
4A\	12cc#\L	.
.	12dd\	.
.	12ee\J	.
4c#\)	&(4a/&)	.
(4A\	16bb\LL	.
.	16aa\	.
.	16gg#\	.
.	16ff#\JJ	.
=20	=20	=20
4B\	4ee\	.
4E\	4dd\	.
4A\)	&(4cc#\&)	.
=21	=21	=21
2D\ 2d\	4ff#\	.
.	(12ddd\L	f
.	12ccc#\	.
.	12bb\J	.
4r	12aa\L	.
.	12gg#\	.
.	12ff#\J	.
=22	=22	=22
2C#\ 2c#\	12ee\L	.
.	12ff#\	.
.	12gg#\J	.
.	12aa\L	.
.	12gg#\	.
.	12ff#\J	.
4r	12ee\L	.
.	12dd\	.
.	12cc#\J	.
=23	=23	=23
4D\ 4d\	12b\L	.
.	12dd\	.
.	12ff#\J	.
4E\ 4c#\	4a/	.
4E\ 4B\	4g#/	.
=24	=24	=24
4A\	&(2a/&))	.
4E'\	.	.
4AA'/	4r	.
!! Trio. Minore
=25:|!	=25:|!	=25:|!
*>C	*>C	*>C
*k[]	*k[]	*k[]
*a:	*a:	*a:
*M3/4	*M3/4	*M3/4
*^	*	*
4r	2.A\	8r	.
.	.	(4cc\	p
(4e/	.	.	.
.	.	4b\	.
[4f/	.	.	.
.	.	8a/)	.
=26	=26	=26	=26
4f/]	2.G#\	8r	.
.	.	4b\	.
4d#/	.	.	.
.	.	4bb\	.
4e/)	.	.	.
.	.	&(8ee\&)	.
=27	=27	=27	=27
4r	2.Gn\	8r	.
.	.	(4b/	.
(4d#/	.	.	.
.	.	4a/	.
[4e/	.	.	.
.	.	8g/)	.
=28	=28	=28	=28
4e/]	2.F#\	8r	.
.	.	4a/	.
4c#/	.	.	.
.	.	4aa\	.
4dn/)	.	.	.
.	.	&(8dd\&)	.
=29	=29	=29	=29
4r	2.Fn\	8r	.
.	.	(4a/	.
(4c#/	.	.	.
.	.	4g/	.
4d/)	.	.	.
.	.	8f/)	.
=30	=30	=30	=30
4r	2.E\	8r	.
.	.	(4g/	.
(4B/	.	.	.
.	.	4gg\	.
4cn/)	.	.	.
.	.	8cc\)	.
=31	=31	=31	=31
4r	2.E\	8r	.
.	.	(4gg\	.
4B/	.	.	.
.	.	4g/	.
[4c/	.	.	.
.	.	8b-\	.
=32	=32	=32	=32
4c/]	2.F\	8a/)	.
.	.	(4aa\	.
4c#/	.	.	.
.	.	4a/	.
&([4d/&)	.	.	.
.	.	8cc\	.
=33	=33	=33	=33
4d/]	2.G\	8bn\)	<
.	.	(4bb\	.
4d#/	.	.	.
.	.	4b\	.
[4e/	.	.	.
.	.	8dd\	.
=34	=34	=34	=34
4e/]	2.A\	8cc\)	.
.	.	(4ccc\	.
4e/	.	.	.
.	.	4cc\	.
&([4fn/&)	.	.	.
.	.	8ee\	.
=35	=35	=35	=35
4f/]	2.B\	8dd\)	.
.	.	(4ddd\	.
4f#/	.	.	.
.	.	4dd\	.
4g/	.	.	.
.	.	[8ffn\	.
*v	*v	*	*
=36	=36	=36
4c\	8ff\]	.
.	4ee\	>
4d\	.	.
.	4b\	.
4e\	.	.
.	[8cc\	.
=37	=37	=37
4Fn\ &(4fn\&)	8cc\]	.
.	4dd\	.
4G\ 4e\	.	.
.	4cc\	.
4G\ 4d\	.	.
.	8b\)	.
=38	=38	=38
(4c\	4b\	.
4G\	2cc\	.
4C/)	.	.
=39:|!|:	=39:|!|:	=39:|!|:
*>D	*>D	*>D
4c\	8r	.
.	4ee\	mf
4e\	.	.
.	(4gg\	.
4B-\	.	.
.	[8dd\	.
=40	=40	=40
4A\	8dd\]	.
.	4cc#\	.
4g\	.	.
.	4b-\	.
4f\	.	.
.	[8a/	.
=41	=41	=41
4e\	8a/]	.
.	4g/	.
4d\	.	.
.	4f/	.
4c#\	.	.
.	[8e/	.
=42	=42	=42
4d\	8e/]	.
.	4f/	.
4A\	.	.
.	4e/	.
4F\	.	.
.	8d/)	.
=43	=43	=43
*^	*	*
4r	&(2.D\&)	8r	.
.	.	(4f/	.
(4G#/	.	.	.
.	.	4e/	.
4A/)	.	.	.
.	.	8d/)	.
=44	=44	=44	=44
4r	2.C\	8r	.
.	.	(4e/	.
(4G#/	.	.	.
.	.	4d/	.
4A/)	.	.	.
.	.	8c/)	.
=45	=45	=45	=45
4r	2BB\	8r	.
.	.	(4d/	.
4G#/	.	.	.
.	.	8B/	.
4A/	&(4AA\&)	8c/L	.
.	.	&(8d/J&)	.
*v	*v	*	*
=46	=46	=46
4E\	4c/)	.
4EE/	4B/	.
4r	4r	.
=47	=47	=47
*^	*	*
4r	2.A\	8r	.
.	.	(4cc\	p
(4e/	.	.	.
.	.	4b\	.
[4f/	.	.	.
.	.	8a/)	.
=48	=48	=48	=48
4f/]	2.G#\	8r	.
.	.	4b\	.
4d#/	.	.	.
.	.	4ccc\	.
4e/)	.	.	.
.	.	&(8ee\&)	.
=49	=49	=49	=49
4r	2.Gn\	8r	.
.	.	(4bb-\	<
(4c#/	.	.	.
.	.	4gg\	.
4e/)	.	.	.
.	.	8cc#\)	.
=50	=50	=50	=50
4r	2.F\	8r	.
.	.	(4aa\	.
(4A/	.	.	.
.	.	4ff\	.
4d/)	.	.	.
.	.	8dd\)	.
=51	=51	=51	=51
4r	2.E\	8r	.
.	.	(4gg#\	.
4B/	.	.	.
.	.	4bbn\	.
4G#/	.	.	.
.	.	[8dd\	.
*v	*v	*	*
=52	=52	=52
4A\	8dd\]	.
.	4cc\	>
4B\	.	.
.	4g#/	.
4c\	.	.
.	[8a/	.
=53	=53	=53
4D\ &(4d\&)	8a/]	.
.	4b\	.
4E\ 4c\	.	.
.	4a/	.
4E\ 4B\	.	.
.	8g#/	.
=54	=54	=54
(4A\	2a/)	.
4E\	.	.
4AA/)	4r	.
==:|!	==:|!	==:|!
*-	*-	*-
!!!ENC: Craig Stuart Sapp
!!!END: 2008/07/05/
